svgs/light/sandwich.svg

<svg xmlns="http://www.w3.org/2000/svg" viewBox="0 0 512 512"><!--! Font Awesome Pro 6.0.0-alpha3 by @fontawesome - https://fontawesome.com License - https://fontawesome.com/license (Commercial License) --><path d="M463.1 320h-79.99l-63.1 32L256 320H48.01c-26.4 0-48.01 21.6-48.01 48l.0076 32c0 26.4 21.6 48 47.1 48h415.1c26.4 0 47.1-21.6 47.1-48l.0076-32C511.1 341.6 490.4 320 463.1 320zM479.1 400c0 8.672-7.326 16-15.1 16H48.01c-8.672 0-15.1-7.328-15.1-16v-32c0-8.674 7.328-16 15.1-16h200.4l57.24 28.62C310.2 382.9 315.1 384 319.1 384c4.904 0 9.806-1.127 14.31-3.379L391.6 352h72.44c8.674 0 15.1 7.326 15.1 16V400zM55.89 274.5C73 265.8 92.38 256 129.5 256c37.19 0 56.56 9.812 73.62 18.44C218 282 229.8 288 256.2 288c26.45 0 38.14-5.984 52.91-13.55C326.3 265.8 345.7 256 382.7 256c37.05 0 56.42 9.812 73.67 18.53c11.59 5.844 21.62 10.88 37.89 12.66c8.859 .8906 16.67-5.375 17.64-14.17c.9531-8.781-5.391-16.67-14.17-17.64c-10.52-1.156-16.37-4.094-27.06-9.469C452.4 236.7 427.4 224 382.7 224c-44.66 0-69.7 12.66-88.09 21.94C281.5 252.6 274.1 256 256.2 256C237.5 256 230.8 252.6 217.6 245.9C199.4 236.7 174.4 224 129.5 224C84.74 224 59.72 236.7 41.39 245.9C30.83 251.3 25.02 254.2 14.28 255.4C5.502 256.3-.8578 264.2 .0954 273c.9375 8.781 8.703 15.12 17.62 14.19C34.25 285.4 44.25 280.4 55.89 274.5zM463.1 64H48.01c-26.4 0-47.1 21.6-47.1 48l-.0076 32c0 26.4 21.61 48 48.01 48h415.1c26.4 0 48.01-21.6 48.01-48l-.0076-32C511.1 85.6 490.4 64 463.1 64zM479.1 144c0 8.672-7.326 16-15.1 16H48.01C39.34 160 32.01 152.7 32.01 144v-32c0-8.674 7.326-16 15.1-16h415.1C472.7 96 479.1 103.3 479.1 112V144z"/></svg>

<svg xmlns="http://www.w3.org/2000/svg" viewBox="0 0 512 512"><!-- Font Awesome Pro 6.0.0-alpha2 by @fontawesome - https://fontawesome.com License - https://fontawesome.com/license (Commercial License) --><path d="M463.988 320H383.998L319.999 352L255.999 320H48.01C21.61 320 0.011 341.6 0.011 368V400C0.011 426.4 21.61 448 48.01 448H463.988C490.388 448 511.988 426.4 511.988 400V368C511.988 341.6 490.388 320 463.988 320ZM479.988 400C479.988 408.672 472.662 416 463.988 416H48.01C39.338 416 32.01 408.672 32.01 400V368C32.01 359.326 39.338 352 48.01 352H248.445L305.688 380.621C310.192 382.873 315.097 384 319.999 384C324.903 384 329.805 382.873 334.309 380.621L391.553 352H463.988C472.662 352 479.988 359.326 479.988 368V400ZM55.891 274.469C73 265.812 92.375 256 129.531 256C166.719 256 186.093 265.812 203.156 274.438C218.031 282.016 229.765 288 256.234 288C282.687 288 294.374 282.016 309.14 274.453C326.264 265.812 345.671 256 382.702 256C419.748 256 439.123 265.812 456.373 274.531C467.967 280.375 477.998 285.406 494.263 287.188C503.123 288.078 510.935 281.812 511.904 273.016C512.857 264.234 506.513 256.344 497.732 255.375C487.217 254.219 481.357 251.281 470.67 245.906C452.404 236.672 427.389 224 382.702 224C338.046 224 312.999 236.656 294.608 245.938C281.53 252.641 274.968 256 256.234 256C237.452 256 230.843 252.641 217.64 245.906C199.375 236.672 174.359 224 129.531 224C84.735 224 59.719 236.672 41.391 245.938C30.829 251.281 25.016 254.219 14.282 255.375C5.501 256.312 -0.859 264.203 0.095 273C1.032 281.781 8.798 288.125 17.719 287.188C34.251 285.406 44.251 280.359 55.891 274.469ZM463.988 64H48.01C21.61 64 0.011 85.6 0.011 112V144C0.011 170.4 21.61 192 48.01 192H463.988C490.388 192 511.988 170.4 511.988 144V112C511.988 85.6 490.388 64 463.988 64ZM479.988 144C479.988 152.672 472.662 160 463.988 160H48.01C39.337 160 32.01 152.672 32.01 144V112C32.01 103.326 39.337 96 48.01 96H463.988C472.662 96 479.988 103.326 479.988 112V144Z"/></svg>
